X:1 % 25
T:Zwoelf Almer (5.)
C:traditionell
R:Jodler
A:Salzkammergut
B:"Pfeiermusik aus dem Salzkammergut", zus. A.Ruttner durch V.Derschmidt revidierte Ausgabe, Verlag E. Friedhuber, Wels, 2000, s. 2/14
S:im buch mit der angabe: Bis auf den letzten Almer stammen alle aus der Sammlung des Anton Ritter von Spaun. Der letzte ist einer Sammlung vom Oberbergmeister Khals Leopold entnommen. Die Stimmen 1 und 2 sind teilweise vertauscht.
N:im buch in D, nr. 5, erster ton: 1. stimme: g'', 2. stimme a'
Z:abc transcripton Simon Wascher
M:3/4
L:1/8
K:C
V:1
P:5
"(sehr getragen und legato)"\
z2 |\
z2 z2 fd | e2 cd e2 | f2 defd | g2 efge |\
f2 defd | e2 cd e2 | f2 defd | e2 z2  :| 
V:2
K:C
(3Gec |\
d2 BGdB | c2 EG c2 | d2 BcdB | e2 cdec |\
d2 BcdB | c2 EG c2 | d2 BcdB | c2 z2  :| 

